teeny/solid/c.svg

<svg width="15" height="15" viewBox="0 0 15 15" fill="none" xmlns="http://www.w3.org/2000/svg">
<path fill-rule="evenodd" clip-rule="evenodd" d="M7.5 0.421143L14 4.21281V10.7872L7.5 14.5788L1 10.7872V4.21281L7.5 0.421143ZM7.5 4C5.567 4 4 5.567 4 7.5C4 9.433 5.567 11 7.5 11H7.68198C8.6585 11 9.59503 10.6121 10.2855 9.92157L10.3536 9.85355L9.64645 9.14645L9.57843 9.21447C9.07546 9.71744 8.39329 10 7.68198 10H7.5C6.11929 10 5 8.88071 5 7.5C5 6.11929 6.11929 5 7.5 5H7.68198C8.39329 5 9.07546 5.28257 9.57843 5.78553L9.64645 5.85355L10.3536 5.14645L10.2855 5.07843C9.59503 4.38792 8.6585 4 7.68198 4H7.5Z" fill="black"/>
</svg>

<svg viewBox="0 0 15 15" xmlns="http://www.w3.org/2000/svg"><path fill-rule="evenodd" d="M7.5.42L14 4.21v6.57l-6.5 3.79 -6.5-3.8V4.19L7.5.39Zm0 3.57C5.56 3.99 4 5.55 4 7.49c0 1.93 1.56 3.5 3.5 3.5h.18c.97 0 1.91-.39 2.6-1.08l.06-.07 -.71-.71 -.07.06c-.51.5-1.19.78-1.9.78h-.19c-1.39 0-2.5-1.12-2.5-2.5 0-1.39 1.11-2.5 2.5-2.5h.18c.71 0 1.39.28 1.89.78l.06.06 .7-.71 -.07-.07c-.7-.7-1.63-1.08-2.61-1.08h-.19Z"/></svg>
